docs/icons/dribbble.svg

<svg width="20" height="20" viewBox="0 0 20 20" fill="none" xmlns="http://www.w3.org/2000/svg">
<path d="M10.0391 20C15.5441 20 20 15.5449 20 10.0391C20 4.55338 15.5627 0 10.0391 0C4.53842 0 0 4.53537 0 10.0391C0 15.5676 4.55887 20 10.0391 20ZM4.89777 17.196C5.62393 14.4287 8.21075 12.1771 11.5195 11.1801C12.2954 13.4692 12.7744 15.8868 12.9198 18.3427C12.0169 18.6568 11.0477 18.8281 10.0391 18.8281C8.12408 18.8281 6.34888 18.2231 4.89777 17.196ZM14.062 17.8519C13.8873 15.4622 13.4207 13.131 12.6697 10.8907C14.7089 10.4758 16.8349 10.5539 18.7666 11.0764C18.4177 14.0306 16.5982 16.5407 14.062 17.8519ZM11.6005 8.1781C13.5887 7.43713 15.6967 6.20834 16.8431 4.43268C18.0524 5.92346 18.7901 7.81738 18.8261 9.88098C16.7473 9.35959 14.4675 9.30405 12.2685 9.7728C12.0557 9.21692 11.8405 8.70499 11.6005 8.1781ZM16.0126 3.54111C15.0613 5.26169 12.9309 6.44562 11.0899 7.11792C10.0595 5.09094 8.79898 3.24188 7.32529 1.59714C8.181 1.32141 9.09286 1.17188 10.0391 1.17188C12.3436 1.17188 14.4434 2.07184 16.0126 3.54111ZM6.16516 2.06406C7.6506 3.6644 8.92303 5.49728 9.95209 7.48779C7.38205 8.22647 4.36798 8.47885 1.38168 8.11966C1.9725 5.45273 3.76755 3.23349 6.16516 2.06406ZM1.20483 9.27887C4.40491 9.66904 7.66998 9.39316 10.4735 8.5553C10.7024 9.05197 10.9169 9.55704 11.116 10.0699C7.89597 11.046 4.9791 13.2451 3.91632 16.3907C2.22626 14.7894 1.17188 12.534 1.17188 10.0391C1.17188 9.78302 1.18347 9.52957 1.20483 9.27887Z" fill="white"/>
</svg>

<svg width="20" height="20" fill="none" xmlns="http://www.w3.org/2000/svg"><path d="M10.04 20A9.956 9.956 0 0020 10.04C20 4.552 15.563 0 10.04 0 4.537 0 0 4.535 0 10.04 0 15.567 4.559 20 10.04 20zm-5.142-2.804c.726-2.767 3.313-5.019 6.622-6.016a27.403 27.403 0 011.4 7.163 8.872 8.872 0 01-8.022-1.147zm9.164.656a28.373 28.373 0 00-1.392-6.961 13.366 13.366 0 016.097.185 8.808 8.808 0 01-4.705 6.776zm-2.461-9.674c1.988-.74 4.096-1.97 5.242-3.745a8.87 8.87 0 011.983 5.448 14.638 14.638 0 00-6.558-.108 27.464 27.464 0 00-.668-1.595zm4.412-4.637c-.952 1.72-3.082 2.905-4.923 3.577a25.7 25.7 0 00-3.765-5.52 8.834 8.834 0 012.714-.426c2.305 0 4.404.9 5.974 2.37zM6.165 2.064a24.52 24.52 0 013.787 5.424c-2.57.738-5.584.99-8.57.632a8.901 8.901 0 014.783-6.056zM1.205 9.28c3.2.39 6.465.114 9.268-.724.23.497.444 1.002.643 1.515-3.22.976-6.137 3.175-7.2 6.32A8.729 8.729 0 011.205 9.28z" fill="#fff"/></svg>
